X: 92
T: Mai bianshi
L: 1/8
M: 2/4
K: F
c f/ d/ c G [I:setbarnb 1]| 
c f/ d/ c G | 
F F/ G/ f f/ d/ | 
c FA2 | 
f f/ e/ d c | 
B/ c/ B/ c/E2 | 
G G/ A/ F E | 
C B,C2 |]

@@@ Tune index: 8966
